icons/glyphs/glyph-copyright.svg

<?xml version="1.0" encoding="UTF-8" standalone="no"?><svg height="16" viewBox="0 0 4.2333333 4.2333333" width="16" xmlns="http://www.w3.org/2000/svg"><sodipodi:namedview/><metadata><rdf:RDF><cc:Work><dc:format>image/svg+xml</dc:format><dc:type/><dc:title/></cc:Work></rdf:RDF></metadata><path d="m8 0a7.9999996 7.9999996 0 0 0 -8 8 7.9999996 7.9999996 0 0 0 8 8 7.9999996 7.9999996 0 0 0 8-8 7.9999996 7.9999996 0 0 0 -8-8zm-.1152344 2.9257812c1.3031434-.0356535 2.6226894.4229884 3.6386724 1.3828126l-1.46875 1.5488281c-1.1947833-1.1287423-3.046457-1.0810542-4.1777349.1113281-1.1312778 1.1923827-1.0864612 3.0439262.1035157 4.177734 1.1899764 1.133809 3.0433537 1.091863 4.1796872-.095703l1.541016 1.476563c-1.9325596 2.019689-5.1656634 2.096233-7.1894532.167968-2.0237898-1.9282639-2.1075546-5.1674306-.1835938-7.195312.9619807-1.0139409 2.2534972-1.5385652 3.5566406-1.5742188z" fill="#d0d0d0" stroke-width=".896793" transform="scale(.26458333)"/></svg>

<?xml version="1.0" encoding="UTF-8" standalone="no"?>
<!-- Created with Inkscape (http://www.inkscape.org/) -->

<svg
     xmlns:dc="http://purl.org/dc/elements/1.1/"
     xmlns:cc="http://creativecommons.org/ns#"
     xmlns:rdf="http://www.w3.org/1999/02/22-rdf-syntax-ns#"
     xmlns:svg="http://www.w3.org/2000/svg"
     xmlns="http://www.w3.org/2000/svg"
     xmlns:sodipodi="http://sodipodi.sourceforge.net/DTD/sodipodi-0.dtd"
     xmlns:inkscape="http://www.inkscape.org/namespaces/inkscape"
     width="16"
     height="16"
     viewBox="0 0 4.2333333 4.2333333"
     version="1.1"
     id="svg8"
     inkscape:version="0.92+devel (fa9b7f7a5b, 2017-07-19, custom)"
     sodipodi:docname="glyph-copyright.svg">
    <defs
         id="defs2" />
    <sodipodi:namedview
         id="base"
         pagecolor="#002466"
         bordercolor="#ffffff"
         borderopacity="0.38039216"
         inkscape:pageopacity="1"
         inkscape:pageshadow="2"
         inkscape:zoom="10.137867"
         inkscape:cx="39.679867"
         inkscape:cy="27.302424"
         inkscape:document-units="px"
         inkscape:current-layer="svg8"
         inkscape:document-rotation="0"
         showgrid="false"
         inkscape:showpageshadow="false"
         borderlayer="true"
         inkscape:window-width="1920"
         inkscape:window-height="1051"
         inkscape:window-x="0"
         inkscape:window-y="0"
         inkscape:window-maximized="1"
         units="px" />
    <metadata
         id="metadata5">
        <rdf:RDF>
            <cc:Work
                 rdf:about="">
                <dc:format>image/svg+xml</dc:format>
                <dc:type
                     rdf:resource="http://purl.org/dc/dcmitype/StillImage" />
                <dc:title></dc:title>
            </cc:Work>
        </rdf:RDF>
    </metadata>
    <path
         style="fill:#d0d0d0;stroke-width:0.89679301"
         d="M 8 0 A 7.9999996 7.9999996 0 0 0 0 8 A 7.9999996 7.9999996 0 0 0 8 16 A 7.9999996 7.9999996 0 0 0 16 8 A 7.9999996 7.9999996 0 0 0 8 0 z M 7.8847656 2.9257812 C 9.187909 2.8901277 10.507455 3.3487696 11.523438 4.3085938 L 10.054688 5.8574219 C 8.8599047 4.7286796 7.008231 4.7763677 5.8769531 5.96875 C 4.7456753 7.1611327 4.7904919 9.0126762 5.9804688 10.146484 C 7.1704452 11.280293 9.0238225 11.238347 10.160156 10.050781 L 11.701172 11.527344 C 9.7686124 13.547033 6.5355086 13.623577 4.5117188 11.695312 C 2.487929 9.7670481 2.4041642 6.5278814 4.328125 4.5 C 5.2901057 3.4860591 6.5816222 2.9614348 7.8847656 2.9257812 z "
         transform="scale(0.26458333)"
         id="path10" />
</svg>
